src/pages/Main/ui/Program/ScheduleItem/images/checkpoint.svg

<svg fill="none" height="25" viewBox="0 0 24 25" width="24" xmlns="http://www.w3.org/2000/svg"><g stroke="#fff" stroke-width=".5"><path d="m12.0001 4.13253 1.8225 5.60903.0561.17274h.1817 5.8977l-4.7714 3.4666-.1469.1067.0561.1728 1.8225 5.609-4.7713-3.4666-.147-.1067-.1469.1067-4.77134 3.4666 1.82249-5.609.05612-.1728-.14694-.1067-4.77132-3.4666h5.89767.18162l.0561-.17274z"/><circle cx="12" cy="12.5" r="11.75"/></g></svg>

<svg width="24" height="25" viewBox="0 0 24 25" fill="none" xmlns="http://www.w3.org/2000/svg">
    <path d="M12.0001 4.13253L13.8226 9.74156L13.8787 9.9143H14.0604L19.9581 9.9143L15.1867 13.3809L15.0398 13.4876L15.0959 13.6604L16.9184 19.2694L12.1471 15.8028L12.0001 15.6961L11.8532 15.8028L7.08186 19.2694L8.90435 13.6604L8.96047 13.4876L8.81353 13.3809L4.04221 9.9143L9.93988 9.9143H10.1215L10.1776 9.74156L12.0001 4.13253Z" stroke="white" stroke-width="0.5"/>
    <circle cx="12" cy="12.5" r="11.75" stroke="white" stroke-width="0.5"/>
</svg>
